source/images/logo/strapi.svg

<svg fill="none" height="41" viewBox="0 0 155 41" width="155" xmlns="http://www.w3.org/2000/svg" xmlns:xlink="http://www.w3.org/1999/xlink"><clipPath id="a"><path d="m.859619.580078h153.548v40h-153.548z"/></clipPath><g clip-path="url(#a)"><g fill="#8e75ff"><path clip-rule="evenodd" d="m34.3808 6.67969h-22.2297v11.14581h10.9381c.3897 0 .7058.3161.7058.7058v10.7871h11.2916v-21.93162c.0002-.09279-.018-.18471-.0533-.27049-.0354-.08578-.0874-.16374-.153-.22942-.0655-.06568-.1434-.11778-.2291-.15333s-.1776-.05385-.2704-.05385z" fill-rule="evenodd"/><path clip-rule="evenodd" d="m12.15 6.67969v11.14581h-10.42843c-.07006-.0001-.13851-.0211-.19666-.0602-.05814-.0391-.10336-.0946-.1299-.1594-.02655-.0649-.03323-.1361-.01919-.2048.01403-.0686.04815-.1315.09801-.1808zm12.2464 33.19101c-.0496.0487-.1126.0818-.1809.0949-.0684.0132-.1391.0058-.2033-.021-.0642-.0269-.1191-.0721-.1577-.13s-.0593-.126-.0594-.1956v-10.3006h11.2916l-10.6903 10.551z" fill-rule="evenodd" opacity=".405"/><path d="m12.1499 17.8252h11.2929c.1936 0 .3523.1574.3523.3523v11.1406h-10.9381c-.1872 0-.3667-.0744-.4991-.2067-.1323-.1324-.2067-.3119-.2067-.4991v-10.7871z" opacity=".405"/></g><path clip-rule="evenodd" d="m148.951 5.97649c.631.62452 1.376.93549 2.235.93549.886 0 1.645-.31097 2.276-.93549.631-.62451.946-1.36.946-2.21032 0-.84903-.315-1.59226-.946-2.22968-.293-.30737-.647-.550926-1.038-.715444-.392-.164517-.813-.246453-1.238-.240683-.859 0-1.604.31871-2.235.954837-.631.63871-.946 1.38065-.946 2.23226 0 .84903.315 1.58452.946 2.20903zm-68.4643 8.14451c0 .0645-.0542.1187-.12.1187h-4.4323v8.2839c0 .6903.1755 1.1948.5239 1.5135s.8594.4968 1.5303.5368c.6142.0374 1.3626.0348 2.2465-.0064l.1251-.0065c.0162-.0009.0323.0015.0475.0071.0151.0056.029.0142.0407.0253s.021.0245.0274.0393c.0064.0149.0096.0309.0096.047v4.4271c.0002.0294-.0105.0578-.0301.0797-.0195.0219-.0465.0358-.0757.039l-.0813.0091c-3.471.3651-5.9264.0258-7.3639-1.0168-1.4632-1.062-2.1935-2.96-2.1935-5.6942v-8.2839h-3.3858c-.0315 0-.0617-.0125-.084-.0348-.0222-.0222-.0347-.0524-.0347-.0839v-4.70064c0-.06451.0529-.11871.1187-.11871h3.3845v-3.28645c0-.09548.0568-.18064.1432-.21935l4.8852-2.12516c.0181-.00821.038-.01175.0578-.01028s.0389.00789.0556.01868.0305.0256.0399.04306c.0095.01747.0145.03704.0144.05692v5.52258h4.431c.0645 0 .1187.05291.1187.11871v4.70064zm9.4193-1.3935c.4826-1.2749 1.2813-2.231 2.3949-2.86843 1.0986-.62547 2.341-.95452 3.6051-.95484.0659 0 .12.05291.12.12v5.39997c0 .0271-.0057.0538-.0167.0785-.011.0246-.027.0468-.0471.0649-.02.0181-.0437.0318-.0693.0402-.0257.0084-.0529.0114-.0798.0087-1.498-.1342-2.8438.1923-4.0361.9781-1.2477.8219-1.871 2.1896-1.871 4.1019v9.3987c0 .0157-.0031.0312-.0091.0457-.0061.0145-.0149.0277-.0261.0387-.0111.011-.0244.0198-.0389.0256-.0146.0059-.0302.0089-.0459.0087h-4.9574c-.0315 0-.0617-.0125-.0839-.0348-.0223-.0222-.0348-.0524-.0348-.0839v-19.67613c0-.06451.0529-.11871.1187-.11871h4.9574c.0646 0 .1188.05291.1188.11871v3.30583zm24.563-3.42585c-.016-.00017-.032.00278-.046.00867-.015.00589-.028.0146-.039.02564s-.02.02419-.026.03867c-.006.01449-.009.03003-.009.04573v2.23224c-1.557-1.93933-3.745-2.90837-6.564-2.90837-2.684 0-4.987 1.01549-6.906 3.04647-1.9201 2.031-2.8801 4.52-2.8801 7.4671s.96 5.4361 2.8801 7.4671c1.919 2.0309 4.222 3.0464 6.906 3.0464 2.819 0 5.006-.969 6.564-2.9071v2.231c0 .0645.054.1187.12.1187h4.956c.066 0 .12-.0529.12-.1187v-19.67613c0-.0157-.003-.03124-.009-.04573-.006-.01448-.015-.02763-.026-.03867-.012-.01104-.025-.01976-.039-.02564-.015-.00589-.031-.00884-.046-.00867h-4.956zm-9.704 14.01805c1.047 1.0361 2.375 1.5536 3.987 1.5536 1.611 0 2.946-.5252 4.007-1.5742 1.061-1.0478 1.59-2.3949 1.59-4.0413 0-1.6465-.529-2.9936-1.59-4.0426-1.061-1.0477-2.396-1.5729-4.008-1.5729-1.61 0-2.939.5252-3.987 1.5742-1.045 1.0477-1.57 2.3948-1.57 4.0413 0 1.6464.524 3 1.571 4.0619zm37.871-11.529c-1.92-2.03098-4.236-3.04647-6.947-3.04647-2.819 0-4.993.96904-6.524 2.90707v-2.23094c0-.03148-.012-.06168-.034-.08394-.023-.02226-.053-.03477-.084-.03477h-4.958c-.031 0-.061.01251-.084.03477-.022.02226-.034.05246-.034.08394v27.63874c0 .0658.052.12.118.12h4.958c.064 0 .118-.0542.118-.12v-10.1949c1.531 1.9381 3.705 2.9071 6.524 2.9071 2.711 0 5.027-1.0155 6.947-3.0464 1.919-2.031 2.879-4.52 2.879-7.4671s-.96-5.4361-2.879-7.4671zm-11.9 11.529c1.047 1.0361 2.375 1.5536 3.987 1.5536 1.61 0 2.946-.5252 4.006-1.5742 1.061-1.0478 1.591-2.3949 1.591-4.0413 0-1.6465-.53-2.9936-1.591-4.0426-1.06-1.0477-2.396-1.5729-4.006-1.5729-1.612 0-2.94.5252-3.987 1.5742-1.047 1.0477-1.571 2.3948-1.571 4.0413 0 1.6464.524 3 1.571 4.0619zm17.992 5.8942c-.032 0-.062-.0125-.084-.0348-.022-.0222-.035-.0524-.035-.0839v-19.67613c0-.06451.053-.11871.119-.11871h4.957c.066 0 .119.05291.119.11871v19.67743c0 .0315-.012.0617-.035.0839-.022.0223-.052.0348-.084.0348h-4.957zm-92.6258-12.9626c-.7123-.3316-1.0671-.7638-1.0671-1.2942 0-.5045.2206-.9032.6645-1.1948.4426-.2916 1-.4387 1.671-.4387 1.2864 0 2.258.4968 2.9161 1.489.0219.0337.055.0586.0935.0704.0384.0118.0798.0097.1168-.0059l4.3845-1.9187c.0152-.0068.0288-.0167.0398-.029.0111-.0124.0195-.027.0246-.0428s.0069-.0325.0051-.049c-.0018-.0166-.007-.0325-.0153-.0469-.0505-.0841-.1021-.1676-.1548-.2503-.7497-1.1678-1.7213-2.0387-2.9407-2.70068-1.3419-.73032-2.8322-1.09549-4.4696-1.09549-2.1755 0-3.9936.56387-5.4581 1.69287-1.4619 1.1278-2.1935 2.6749-2.1935 4.6387 0 1.302.3561 2.3833 1.067 3.2465.6872.8451 1.5823 1.497 2.5975 1.8916 1.0193.3974 2.04.7303 3.0606.9948 1.0194.2659 1.8865.5652 2.5974.8968.711.3316 1.0671.7626 1.0671 1.2942 0 1.142-.9264 1.7123-2.778 1.7123-1.7639 0-2.9858-.6452-3.6658-1.9329-.0273-.0543-.0743-.0961-.1314-.117-.057-.0208-.1199-.0192-.1757.0047l-4.3717 1.9161c-.0145.0064-.0277.0157-.0386.0273s-.0194.0252-.025.0402c-.0055.0149-.008.0308-.0072.0467.0007.0159.0046.0315.0115.0458l.049.0994c1.5278 3.0194 4.3123 4.529 8.3549 4.529 2.3083 0 4.2348-.5509 5.778-1.6516 1.5445-1.1032 2.3162-2.6761 2.3162-4.72 0-1.3548-.3562-2.4826-1.0671-3.3858-.6703-.8716-1.5696-1.5399-2.5975-1.9303-1.0004-.3789-2.0224-.6982-3.0606-.9561-1.0207-.2529-1.8865-.5446-2.5974-.8775z" fill="#2f2e8b" fill-rule="evenodd"/></g></svg>

<svg width="155" height="41" viewBox="0 0 155 41" fill="none" xmlns="http://www.w3.org/2000/svg">
<g clip-path="url(#clip0)">
<path fill-rule="evenodd" clip-rule="evenodd" d="M34.3808 6.67969H12.1511V17.8255H23.0892C23.4789 17.8255 23.795 18.1416 23.795 18.5313V29.3184H35.0866V7.38678C35.0868 7.29399 35.0686 7.20207 35.0333 7.11629C34.9979 7.03051 34.9459 6.95255 34.8803 6.88687C34.8148 6.82119 34.7369 6.76909 34.6512 6.73354C34.5655 6.69799 34.4736 6.67969 34.3808 6.67969Z" fill="#8E75FF"/>
<path opacity="0.405" fill-rule="evenodd" clip-rule="evenodd" d="M12.15 6.67969V17.8255H1.72157C1.65151 17.8254 1.58306 17.8044 1.52491 17.7653C1.46677 17.7262 1.42155 17.6707 1.39501 17.6059C1.36846 17.541 1.36178 17.4698 1.37582 17.4011C1.38985 17.3325 1.42397 17.2696 1.47383 17.2203L12.15 6.67969ZM24.3964 39.8707C24.3468 39.9194 24.2838 39.9525 24.2155 39.9656C24.1471 39.9788 24.0764 39.9714 24.0122 39.9446C23.948 39.9177 23.8931 39.8725 23.8545 39.8146C23.8159 39.7567 23.7952 39.6886 23.7951 39.619V29.3184H35.0867L24.3964 39.8694V39.8707Z" fill="#8E75FF"/>
<path opacity="0.405" d="M12.1499 17.8252H23.4428C23.6364 17.8252 23.7951 17.9826 23.7951 18.1775V29.3181H12.857C12.6698 29.3181 12.4903 29.2437 12.3579 29.1114C12.2256 28.979 12.1512 28.7995 12.1512 28.6123V17.8252H12.1499Z" fill="#8E75FF"/>
<path fill-rule="evenodd" clip-rule="evenodd" d="M148.951 5.97649C149.582 6.60101 150.327 6.91198 151.186 6.91198C152.072 6.91198 152.831 6.60101 153.462 5.97649C154.093 5.35198 154.408 4.61649 154.408 3.76617C154.408 2.91714 154.093 2.17391 153.462 1.53649C153.169 1.22912 152.815 0.985564 152.424 0.821046C152.032 0.656529 151.611 0.574593 151.186 0.580363C150.327 0.580363 149.582 0.899073 148.951 1.5352C148.32 2.17391 148.005 2.91585 148.005 3.76746C148.005 4.61649 148.32 5.35198 148.951 5.97649ZM80.4867 14.121C80.4867 14.1855 80.4325 14.2397 80.3667 14.2397H75.9344V22.5236C75.9344 23.2139 76.1099 23.7184 76.4583 24.0371C76.8067 24.3558 77.3177 24.5339 77.9886 24.5739C78.6028 24.6113 79.3512 24.6087 80.2351 24.5675L80.3602 24.561C80.3764 24.5601 80.3925 24.5625 80.4077 24.5681C80.4228 24.5737 80.4367 24.5823 80.4484 24.5934C80.4601 24.6045 80.4694 24.6179 80.4758 24.6327C80.4822 24.6476 80.4854 24.6636 80.4854 24.6797V29.1068C80.4856 29.1362 80.4749 29.1646 80.4553 29.1865C80.4358 29.2084 80.4088 29.2223 80.3796 29.2255L80.2983 29.2346C76.8273 29.5997 74.3719 29.2604 72.9344 28.2178C71.4712 27.1558 70.7409 25.2578 70.7409 22.5236V14.2397H67.3551C67.3236 14.2397 67.2934 14.2272 67.2711 14.2049C67.2489 14.1827 67.2364 14.1525 67.2364 14.121V9.42036C67.2364 9.35585 67.2893 9.30165 67.3551 9.30165H70.7396V6.0152C70.7396 5.91972 70.7964 5.83456 70.8828 5.79585L75.768 3.67069C75.7861 3.66248 75.806 3.65894 75.8258 3.66041C75.8456 3.66188 75.8647 3.6683 75.8814 3.67909C75.8981 3.68988 75.9119 3.70469 75.9213 3.72215C75.9308 3.73962 75.9358 3.75919 75.9357 3.77907V9.30165H80.3667C80.4312 9.30165 80.4854 9.35456 80.4854 9.42036V14.121H80.4867ZM89.906 12.7275C90.3886 11.4526 91.1873 10.4965 92.3009 9.85907C93.3995 9.2336 94.6419 8.90455 95.906 8.90423C95.9719 8.90423 96.026 8.95714 96.026 9.02423V14.4242C96.026 14.4513 96.0203 14.478 96.0093 14.5027C95.9983 14.5273 95.9823 14.5495 95.9622 14.5676C95.9422 14.5857 95.9185 14.5994 95.8929 14.6078C95.8672 14.6162 95.84 14.6192 95.8131 14.6165C94.3151 14.4823 92.9693 14.8088 91.777 15.5946C90.5293 16.4165 89.906 17.7842 89.906 19.6965V29.0952C89.906 29.1109 89.9029 29.1264 89.8969 29.1409C89.8908 29.1554 89.882 29.1686 89.8708 29.1796C89.8597 29.1906 89.8464 29.1994 89.8319 29.2052C89.8173 29.2111 89.8017 29.2141 89.786 29.2139H84.8286C84.7971 29.2139 84.7669 29.2014 84.7447 29.1791C84.7224 29.1569 84.7099 29.1267 84.7099 29.0952V9.41907C84.7099 9.35456 84.7628 9.30036 84.8286 9.30036H89.786C89.8506 9.30036 89.9048 9.35327 89.9048 9.41907V12.7249L89.906 12.7275ZM114.469 9.30165C114.453 9.30148 114.437 9.30443 114.423 9.31032C114.408 9.31621 114.395 9.32492 114.384 9.33596C114.373 9.347 114.364 9.36015 114.358 9.37463C114.352 9.38912 114.349 9.40466 114.349 9.42036V11.6526C112.792 9.71327 110.604 8.74423 107.785 8.74423C105.101 8.74423 102.798 9.75972 100.879 11.7907C98.9589 13.8217 97.9989 16.3107 97.9989 19.2578C97.9989 22.2049 98.9589 24.6939 100.879 26.7249C102.798 28.7558 105.101 29.7713 107.785 29.7713C110.604 29.7713 112.791 28.8023 114.349 26.8642V29.0952C114.349 29.1597 114.403 29.2139 114.469 29.2139H119.425C119.491 29.2139 119.545 29.161 119.545 29.0952V9.41907C119.545 9.40337 119.542 9.38783 119.536 9.37334C119.53 9.35886 119.521 9.34571 119.51 9.33467C119.498 9.32363 119.485 9.31491 119.471 9.30903C119.456 9.30314 119.44 9.30019 119.425 9.30036H114.469V9.30165ZM104.765 23.3197C105.812 24.3558 107.14 24.8733 108.752 24.8733C110.363 24.8733 111.698 24.3481 112.759 23.2991C113.82 22.2513 114.349 20.9042 114.349 19.2578C114.349 17.6113 113.82 16.2642 112.759 15.2152C111.698 14.1675 110.363 13.6423 108.751 13.6423C107.141 13.6423 105.812 14.1675 104.764 15.2165C103.719 16.2642 103.194 17.6113 103.194 19.2578C103.194 20.9042 103.718 22.2578 104.765 23.3197ZM142.636 11.7907C140.716 9.75972 138.4 8.74423 135.689 8.74423C132.87 8.74423 130.696 9.71327 129.165 11.6513V9.42036C129.165 9.38888 129.153 9.35868 129.131 9.33642C129.108 9.31416 129.078 9.30165 129.047 9.30165H124.089C124.058 9.30165 124.028 9.31416 124.005 9.33642C123.983 9.35868 123.971 9.38888 123.971 9.42036V37.0591C123.971 37.1249 124.023 37.1791 124.089 37.1791H129.047C129.111 37.1791 129.165 37.1249 129.165 37.0591V26.8642C130.696 28.8023 132.87 29.7713 135.689 29.7713C138.4 29.7713 140.716 28.7558 142.636 26.7249C144.555 24.6939 145.515 22.2049 145.515 19.2578C145.515 16.3107 144.555 13.8217 142.636 11.7907ZM130.736 23.3197C131.783 24.3558 133.111 24.8733 134.723 24.8733C136.333 24.8733 137.669 24.3481 138.729 23.2991C139.79 22.2513 140.32 20.9042 140.32 19.2578C140.32 17.6113 139.79 16.2642 138.729 15.2152C137.669 14.1675 136.333 13.6423 134.723 13.6423C133.111 13.6423 131.783 14.1675 130.736 15.2165C129.689 16.2642 129.165 17.6113 129.165 19.2578C129.165 20.9042 129.689 22.2578 130.736 23.3197ZM148.728 29.2139C148.696 29.2139 148.666 29.2014 148.644 29.1791C148.622 29.1569 148.609 29.1267 148.609 29.0952V9.41907C148.609 9.35456 148.662 9.30036 148.728 9.30036H153.685C153.751 9.30036 153.804 9.35327 153.804 9.41907V29.0965C153.804 29.128 153.792 29.1582 153.769 29.1804C153.747 29.2027 153.717 29.2152 153.685 29.2152H148.728V29.2139ZM56.1022 16.2513C55.3899 15.9197 55.0351 15.4875 55.0351 14.9571C55.0351 14.4526 55.2557 14.0539 55.6996 13.7623C56.1422 13.4707 56.6996 13.3236 57.3706 13.3236C58.657 13.3236 59.6286 13.8204 60.2867 14.8126C60.3086 14.8463 60.3417 14.8712 60.3802 14.883C60.4186 14.8948 60.46 14.8927 60.497 14.8771L64.8815 12.9584C64.8967 12.9516 64.9103 12.9417 64.9213 12.9294C64.9324 12.917 64.9408 12.9024 64.9459 12.8866C64.951 12.8708 64.9528 12.8541 64.951 12.8376C64.9492 12.821 64.944 12.8051 64.9357 12.7907C64.8852 12.7066 64.8336 12.6231 64.7809 12.5404C64.0312 11.3726 63.0596 10.5017 61.8402 9.83972C60.4983 9.1094 59.008 8.74423 57.3706 8.74423C55.1951 8.74423 53.377 9.3081 51.9125 10.4371C50.4506 11.5649 49.719 13.112 49.719 15.0758C49.719 16.3778 50.0751 17.4591 50.786 18.3223C51.4732 19.1674 52.3683 19.8193 53.3835 20.2139C54.4028 20.6113 55.4235 20.9442 56.4441 21.2087C57.4635 21.4746 58.3306 21.7739 59.0415 22.1055C59.7525 22.4371 60.1086 22.8681 60.1086 23.3997C60.1086 24.5417 59.1822 25.112 57.3306 25.112C55.5667 25.112 54.3448 24.4668 53.6648 23.1791C53.6375 23.1248 53.5905 23.083 53.5334 23.0621C53.4764 23.0413 53.4135 23.0429 53.3577 23.0668L48.986 24.9829C48.9715 24.9893 48.9583 24.9986 48.9474 25.0102C48.9365 25.0218 48.928 25.0354 48.9224 25.0504C48.9169 25.0653 48.9144 25.0812 48.9152 25.0971C48.9159 25.113 48.9198 25.1286 48.9267 25.1429L48.9757 25.2423C50.5035 28.2617 53.288 29.7713 57.3306 29.7713C59.6389 29.7713 61.5654 29.2204 63.1086 28.1197C64.6531 27.0165 65.4248 25.4436 65.4248 23.3997C65.4248 22.0449 65.0686 20.9171 64.3577 20.0139C63.6874 19.1423 62.7881 18.474 61.7602 18.0836C60.7598 17.7047 59.7378 17.3854 58.6996 17.1275C57.6789 16.8746 56.8131 16.5829 56.1022 16.25V16.2513Z" fill="#2F2E8B"/>
</g>
<defs>
<clipPath id="clip0">
<rect width="153.548" height="40" fill="white" transform="translate(0.859619 0.580078)"/>
</clipPath>
</defs>
</svg>
